X:1
T:Welwyn, 11.10.11.10
T:Welwyn, 11.10.11.10
T:Alfred Scott-Gatty, 1902
T:Public Domain Courtesy of the Cyber Hymnal™
C:Alfred Scott-Gatty, 1902
Z:Public Domain
Z:Courtesy of the Cyber Hymnal™
%%score ( 1 2 ) ( 3 4 )
L:1/8
Q:1/4=113
M:4/4
K:F
V:1 treble 
V:2 treble 
V:3 bass 
V:4 bass 
V:1
 [CA]4 [CG]2 F2 | [CE]6 [CF]2 | [DG]2 [DB]2 [DA]2 [DG]2 | [CF]4 [CE]4 | [CF]4 [Dd]2 [Ed]2 | %5
 [Fc]6 F2 | [EB]2 [Ec]2 [CA]2 (cB) | ([FA]4 [EG]4) | [CA]4 [B,C]2 [A,C]2 | [CD]4 [B,E]2 [A,F]2 | %10
 [B,B]2 [CA]2 [DG]2 [DF]2 | [FA]4 [EG]4 | [Fc]4 [EB]2 [FA]2 | d6 [Fc]2 | [FB]2 [FA]2 [FG]2 [EA]2 | %15
 F8 |] %16
V:2
 x6 (C=B,) | x8 | x8 | x8 | x8 | x6 F2 | x6 D2 | x8 | x8 | x8 | x8 | x8 | x8 | F4 E2 x2 | x8 | %15
 F8 |] %16
V:3
 F,4 [E,G,]2 [D,G,]2 | G,6 [A,,F,]2 | [B,,D,]2 [G,,G,]2 [A,,^F,]2 [B,,G,]2 | [C,A,]4 G,4 | %4
 [A,,F,]4 [B,,F,]2 [B,,G,]2 | [A,,A,]6 [D,A,]2 | G,2 [C,G,]2 [F,A,]2 [B,,G,]2 | (A,2 =B,2 C4) | %8
 [F,,A,]4 [G,,E,]2 [A,,F,]2 | [B,,A,]4 [C,G,]2 [D,F,]2 | [G,,D,]2 [A,,^F,]2 [B,,G,]2 [=B,,G,]2 | %11
 (F,2 A,2) C4 | C4 [G,C]2 [F,C]2 | B,4 G,2 [A,,C]2 | [G,,D]2 [A,,C]2 [B,,D]2 [C,C]2 | [F,,A,]8 |] %16
V:4
 F,4 x4 | (C,4 B,,2) x2 | x8 | x4 (C,2 B,,2) | x8 | x8 | G,2 x6 | C,8 | x8 | x8 | x8 | %11
 C,4 (C,2 B,,2) | (A,,2 A,2) x4 | B,,6 x2 | x8 | x8 |] %16

